src/lib/packages/icons/src/assets/line/angle-right-circle.svg

<svg xmlns="http://www.w3.org/2000/svg" width="24" height="24" fill="none"><path fill="currentColor" d="M12 1.25C6.072 1.25 1.25 6.072 1.25 12S6.072 22.75 12 22.75 22.75 17.928 22.75 12 17.928 1.25 12 1.25Zm0 20c-5.101 0-9.25-4.149-9.25-9.25S6.899 2.75 12 2.75s9.25 4.149 9.25 9.25-4.149 9.25-9.25 9.25Zm2.53-9.78a.75.75 0 0 1 0 1.061l-3 3a.748.748 0 0 1-1.06 0 .75.75 0 0 1 0-1.061L12.94 12l-2.47-2.47a.75.75 0 0 1 1.061-1.061l2.999 3.001Z"/></svg>

<svg width="24" height="24" viewBox="0 0 24 24" fill="none" xmlns="http://www.w3.org/2000/svg">
<path d="M12 1.25C6.072 1.25 1.25 6.072 1.25 12C1.25 17.928 6.072 22.75 12 22.75C17.928 22.75 22.75 17.928 22.75 12C22.75 6.072 17.928 1.25 12 1.25ZM12 21.25C6.899 21.25 2.75 17.101 2.75 12C2.75 6.899 6.899 2.75 12 2.75C17.101 2.75 21.25 6.899 21.25 12C21.25 17.101 17.101 21.25 12 21.25ZM14.53 11.47C14.823 11.763 14.823 12.238 14.53 12.531L11.53 15.531C11.384 15.677 11.192 15.751 11 15.751C10.808 15.751 10.616 15.678 10.47 15.531C10.177 15.238 10.177 14.763 10.47 14.47L12.9399 12L10.47 9.53003C10.177 9.23703 10.177 8.76199 10.47 8.46899C10.763 8.17599 11.238 8.17599 11.531 8.46899L14.53 11.47Z" fill="currentColor"/>
</svg>
